X:1
T:Title
%%score ( 1 2 ) { 3 | 4 }
L:1/8
Q:1/4=135
M:3/4
K:G
V:1 treble nm="Grand Piano, Staff 1"
V:2 treble 
V:3 treble nm="Choir Pad, Weld, 76.76.77.76"
V:4 bass 
V:1
 [DG]4 [DA]2 | [GB]4 [Gd]2 | [Gc]4 [GB]2 | [FA]4 [DA]2 | [GB]4 [DG]2 | [EA]2 [DG]2 [DF]2 | [DG]6 | %7
w: By~Composer~Unknown *|||||||
 [B,G]4 [DA]2 | B2- [GB]2 [Gd]2 | [Gc]4 [GB]2 | [FA]4 [DA]2 | [GB]4 [DG]2 | [EA]2 [DG]2 [DF]2 | %13
w: ||||||
 [DG]6 | [FA]4 [FA]2 | [FA]2 [EG]2 [DF]2 | [EG]2 [DF]2 [^CE]2 | [DF]4 z2 | [DB]4 [DA]2 | %19
w: ||||||
 [G^c]4 [Fd]2 | A2 G2 [DF]2 | [^CE]4 z2 | [DF]4 [DF]2 | [DG]4 [DA]2 | B2- [GB]2 [Fc]2 | %25
w: ||||||
 d2 B2 [EG]2 | [CE]4 [EA]2 | [DG]4 [CF]2 | [B,G]6- | [B,G]2 z2 z2 |] %30
w: |||||
V:2
 x6 | x6 | x6 | x6 | x6 | x6 | x6 | x6 | D2 z2 z2 | x6 | x6 | x6 | x6 | x6 | x6 | x6 | x6 | x6 | %18
 x6 | x6 | E4 z2 | x6 | x6 | x6 | D2 z2 z2 | G4 z2 | x6 | x6 | x6 | x6 |] %30
V:3
 B,4 D2 | D4 D2 | E4 D2 | D4 D2 | D4 D2 | C2[K:bass] B,2 A,2 | B,6 | G,4 F,2 | G,4 B,2 | E4 D2 | %10
 D4 D2 | D4 D2 | C2[K:bass] B,2 A,2 | B,6 | A,4 D2 | D2 ^C2 D2 | B,2 A,4 | A,4 z2 | G,4 A,2 | %19
 A,4 A,2 | A,4 A,2 | A,4 z2 | A,4 A,2 | G,4 F,2 | G,2[K:treble] D2 C2 | B,4 D2 | G,4[K:bass] C2 | %27
 B,4 A,2 | G,6- | G,2 z2 z2 |] %30
V:4
 G,4 F,2 | G,4 B,,2 | C,4 G,2 | D,4 F,2 | G,4 B,,2 | C,2 D,2 D,2 | G,,6 | G,,4 D,2 | z2 z2 B,,2 | %9
 C,4 G,,2 | D,4 F,2 | E,4 B,,2 | C,2 D,2 D,2 | G,,6 | D,4 D,2 | D,2 A,,2 B,,2 | G,,2 A,,4 | %17
 D,4 z2 | z2 z2 F,2 | E,4 D,2 | ^C,4 D,2 | A,,4 z2 | D,4 C,2 | B,,4 D,2 | z2 z2 A,2 | z2 z2 B,,2 | %26
 C,4 A,,2 | D,4 D,2 | G,,6- | G,,2 z2 z2 |] %30

